src/lib/packages/icons/src/assets/line/phone-2.svg

<svg width="24" height="24" viewBox="0 0 24 24" fill="none" xmlns="http://www.w3.org/2000/svg">
<path d="M16.5521 21.752C16.0931 21.752 15.6311 21.69 15.1751 21.565C9.01111 19.873 4.12909 14.995 2.43609 8.83402C2.05109 7.43302 2.26204 5.97301 3.03204 4.72501C3.80504 3.47101 5.0761 2.58701 6.5191 2.29801C7.4731 2.10701 8.4281 2.53301 8.9151 3.35501L10.4781 5.99399C11.2371 7.27599 10.86 8.92799 9.61896 9.75299L8.4881 10.505C9.5451 12.676 11.3229 14.458 13.4839 15.514L14.2462 14.377C15.0742 13.138 16.7281 12.767 18.0091 13.53L20.6522 15.106C21.4702 15.594 21.8941 16.548 21.7071 17.481C21.4191 18.924 20.5341 20.195 19.2811 20.968C18.4391 21.487 17.5021 21.752 16.5521 21.752ZM6.97809 3.75C6.92909 3.75 6.87911 3.75502 6.83111 3.76502C5.77711 3.97602 4.86512 4.611 4.31012 5.512C3.76112 6.402 3.61009 7.44101 3.88409 8.43601C5.43709 14.09 9.91608 18.566 15.5721 20.118C16.5681 20.391 17.605 20.239 18.493 19.691C19.393 19.136 20.0291 18.222 20.2361 17.186C20.2981 16.875 20.1571 16.556 19.8841 16.394L17.241 14.818C16.642 14.463 15.876 14.637 15.492 15.212L14.377 16.877C14.177 17.175 13.7911 17.289 13.4651 17.151C10.5021 15.913 8.09213 13.496 6.85113 10.522C6.71313 10.19 6.82999 9.80801 7.12799 9.60901L8.78912 8.504C9.36512 8.121 9.54007 7.35401 9.18707 6.75901L7.62408 4.12C7.48708 3.887 7.23909 3.75 6.97809 3.75ZM14.869 14.794H14.879H14.869ZM19.7501 9.38501C19.7501 8.97101 19.4141 8.63501 19.0001 8.63501H17.087C17.486 8.22901 17.9681 7.74299 18.5091 7.20099C19.6671 6.03899 19.8071 4.42201 18.8321 3.44001C18.2061 2.80801 17.363 2.528 16.512 2.672C15.678 2.814 14.9711 3.336 14.6221 4.068C14.4441 4.442 14.6031 4.89 14.9771 5.068C15.3561 5.248 15.7991 5.08602 15.9771 4.71302C16.1141 4.42602 16.415 4.21 16.763 4.151C17.02 4.107 17.4041 4.13101 17.7671 4.49601C18.1481 4.88101 18.0131 5.573 17.4461 6.142C15.8461 7.747 14.761 8.862 14.761 8.862C14.551 9.078 14.4899 9.39901 14.6089 9.67701C14.7259 9.95501 14.9981 10.135 15.2991 10.135H18.9991C19.4141 10.135 19.7501 9.80001 19.7501 9.38501Z" fill="currentColor"/>
</svg>

<svg xmlns="http://www.w3.org/2000/svg" width="24" height="24" fill="none"><path fill="currentColor" d="M16.552 21.752c-.459 0-.92-.062-1.377-.187C9.011 19.873 4.13 14.995 2.436 8.834a5.15 5.15 0 0 1 .596-4.109 5.342 5.342 0 0 1 3.487-2.427 2.259 2.259 0 0 1 2.396 1.057l1.563 2.639a2.8 2.8 0 0 1-.859 3.759l-1.13.752a10.926 10.926 0 0 0 4.995 5.009l.762-1.137a2.8 2.8 0 0 1 3.763-.847l2.643 1.576a2.254 2.254 0 0 1 1.055 2.375 5.34 5.34 0 0 1-2.426 3.487 5.182 5.182 0 0 1-2.729.784ZM6.978 3.75a.726.726 0 0 0-.147.015 3.843 3.843 0 0 0-2.52 1.747c-.55.89-.7 1.929-.427 2.924 1.553 5.654 6.032 10.13 11.688 11.682a3.663 3.663 0 0 0 2.921-.427 3.838 3.838 0 0 0 1.743-2.505.752.752 0 0 0-.352-.792l-2.643-1.576a1.301 1.301 0 0 0-1.749.394l-1.115 1.665a.751.751 0 0 1-.912.274 12.412 12.412 0 0 1-6.614-6.629.751.751 0 0 1 .277-.913l1.661-1.105a1.3 1.3 0 0 0 .398-1.745L7.624 4.12a.75.75 0 0 0-.646-.37Zm7.891 11.044h.01-.01Zm4.881-5.409a.75.75 0 0 0-.75-.75h-1.913c.399-.406.881-.892 1.422-1.434 1.158-1.162 1.298-2.779.323-3.761-.626-.632-1.469-.912-2.32-.768-.834.142-1.54.664-1.89 1.396a.75.75 0 0 0 1.355.645c.137-.287.438-.503.786-.562.257-.044.641-.02 1.004.345.381.385.246 1.077-.32 1.646a364.64 364.64 0 0 0-2.686 2.72.747.747 0 0 0-.152.815.75.75 0 0 0 .69.458H19a.75.75 0 0 0 .751-.75Z"/></svg>
